apps/symbolic/help-faq-symbolic.svg

<svg height="24" viewBox="0 0 24 24" width="24" xmlns="http://www.w3.org/2000/svg"><path d="m4.8 3c-.9941125 0-1.8.8058874-1.8 1.8v10.8c0 .994112.8058875 1.8 1.8 1.8h3.6v2.7c0 .497057.4029437.9.9.9h.45c.225 0 .45-.09.63-.261l3.33-3.339h5.49c.994112 0 1.8-.805888 1.8-1.8v-10.8c0-.999-.81-1.8-1.8-1.8zm0 1.8h14.4v10.8h-6.228l-2.772 2.772v-2.772h-5.4z" fill="#bebebe" stroke-width=".818182"/><path d="m14.202446 9.785168-.59595.609194c-.471494.481971-.51538.894052-.774736 1.873935-.06272.236972-1.229713.219583-1.324336 0-.02509-.813442.291616-1.707594.774737-2.205018l.821087-.83433c.245003-.238381.390679-.569465.390679-.933657 0-.7350055-.595951-1.3243345-1.324334-1.3243345-.731411 0-1.324336.5929245-1.324336 1.3243345h-1.3243348c0-1.4628195 1.1858498-2.6486693 2.6486708-2.6486693 1.462819 0 2.648669 1.1858498 2.648669 2.6486693 0 .582708-.23838 1.105819-.615816 1.489876m-2.529479 3.807463c.233683-.234542.758709-.233684.993251 0 .2354.234539.23497.75828 0 .993251-.234112.234112-.759141.234112-.993251 0-.234111-.234112-.233683-.758711 0-.993251z" fill="#bebebe" stroke-width=".818182"/></svg>

<?xml version="1.0" encoding="UTF-8" standalone="no"?>
<svg
   xmlns:dc="http://purl.org/dc/elements/1.1/"
   xmlns:cc="http://creativecommons.org/ns#"
   xmlns:rdf="http://www.w3.org/1999/02/22-rdf-syntax-ns#"
   xmlns:svg="http://www.w3.org/2000/svg"
   xmlns="http://www.w3.org/2000/svg"
   xmlns:sodipodi="http://sodipodi.sourceforge.net/DTD/sodipodi-0.dtd"
   xmlns:inkscape="http://www.inkscape.org/namespaces/inkscape"
   version="1.1"
   width="24"
   height="24"
   viewBox="0 0 24 24"
   id="svg2"
   inkscape:version="0.92.1 r15371"
   sodipodi:docname="help-faq-symbolic.svg">
  <metadata
     id="metadata10">
    <rdf:RDF>
      <cc:Work
         rdf:about="">
        <dc:format>image/svg+xml</dc:format>
        <dc:type
           rdf:resource="http://purl.org/dc/dcmitype/StillImage" />
      </cc:Work>
    </rdf:RDF>
  </metadata>
  <defs
     id="defs8" />
  <sodipodi:namedview
     pagecolor="#ffffff"
     bordercolor="#666666"
     borderopacity="1"
     objecttolerance="10"
     gridtolerance="10"
     guidetolerance="10"
     inkscape:pageopacity="0"
     inkscape:pageshadow="2"
     inkscape:window-width="640"
     inkscape:window-height="480"
     id="namedview6"
     showgrid="false"
     inkscape:zoom="16"
     inkscape:cx="5.4662428"
     inkscape:cy="14.907687"
     inkscape:current-layer="svg2" />
  <path
     d="M 4.8,3 C 3.8058875,3 3,3.8058874 3,4.8 v 10.8 c 0,0.994112 0.8058875,1.8 1.8,1.8 h 3.6 v 2.7 c 0,0.497057 0.4029437,0.9 0.9,0.9 h 0.45 v 0 c 0.225,0 0.45,-0.09 0.63,-0.261 L 13.71,17.4 h 5.49 c 0.994112,0 1.8,-0.805888 1.8,-1.8 V 4.8 C 21,3.801 20.19,3 19.2,3 H 4.8 m 0,1.8 H 19.2 V 15.6 H 12.972 L 10.2,18.372 V 15.6 H 4.8 V 4.8"
     id="path4"
     inkscape:connector-curvature="0"
     sodipodi:nodetypes="cssscssccccssssccccccccc"
     style="fill:#bebebe;fill-opacity:1;stroke-width:0.81818181" />
  <path
     sodipodi:nodetypes="csscccssccsscsssss"
     inkscape:connector-curvature="0"
     style="fill:#bebebe;fill-opacity:1;stroke-width:0.81818181"
     id="path4-1"
     d="m 14.202446,9.785168 -0.59595,0.609194 c -0.471494,0.481971 -0.51538,0.894052 -0.774736,1.873935 -0.06272,0.236972 -1.229713,0.219583 -1.324336,0 -0.02509,-0.813442 0.291616,-1.707594 0.774737,-2.205018 l 0.821087,-0.83433 c 0.245003,-0.238381 0.390679,-0.569465 0.390679,-0.933657 0,-0.7350055 -0.595951,-1.3243345 -1.324334,-1.3243345 -0.731411,0 -1.324336,0.5929245 -1.324336,1.3243345 H 9.5209222 c 0,-1.4628195 1.1858498,-2.6486693 2.6486708,-2.6486693 1.462819,0 2.648669,1.1858498 2.648669,2.6486693 0,0.582708 -0.23838,1.105819 -0.615816,1.489876 m -2.529479,3.807463 c 0.233683,-0.234542 0.758709,-0.233684 0.993251,0 0.2354,0.234539 0.23497,0.75828 0,0.993251 -0.234112,0.234112 -0.759141,0.234112 -0.993251,0 -0.234111,-0.234112 -0.233683,-0.758711 0,-0.993251 z" />
</svg>
